X: 114
T: Gjusevska Racenica
O: Bulgaria
M: 7/8
L: 1/8
Q: 1/4=240
K: Eb
%%MIDI program 24
|:EF-F3 F2       |F3 EEDE       |F3 EED       |D3 =B,B,_B,A,|\
  =B,B,B,_B,A,DEF|D2=B,2B,_B,A,2|B,4z2        :|
|:A,=B,z DEFE    |D=B,z _B,A,z2 |A,=B,z DEFE  |D=B,z_B,A,z2 |\
  A,=B,z DEFE    |D=B,z _B,A,z2 |E=B,_B,4z    :|
|:FFF A_GFE      |DDD FE^D=B,   |=B,B,B, EDB,2|[1_B,=B,DEF3 :|[2B,6z|
|:FFF A_GFE      |DDD FE^D=B,   |=B,B,B, EDB,2|[1_B,=B,DEF3 :|[2B,6z|
